X:1
T:Montenegro, LMD
T:Montenegro, LMD
T:Barney Elliott Warren, 1897
T:Public Domain Courtesy of the Cyber Hymnal™
C:Barney Elliott Warren, 1897
Z:Public Domain
Z:Courtesy of the Cyber Hymnal™
%%score ( 1 2 ) ( 3 4 )
L:1/8
Q:1/4=88
M:6/8
K:D
V:1 treble 
V:2 treble 
V:3 bass 
V:4 bass 
V:1
 D | [DF]>[DF] [DF]3 D | [CE]>[CF] D3 [FA] | [FA]>[FA] [FA]3 [CE] | [DF]>[EG] [DF]3 D | %5
 [DF]>[DF] [DF]3 [FA] |!f! [DA]>[DF] [DG]3 [DG] | [DF]>D [DF]3 [CG] | [CE]>[CF] D3 [FA] | %9
 [FA]>[FA] [FA]3 [Fd] | [Ac]>[GB] [FA]3 D | [DF]>[DF]!<(! [DF]3 [DA]!<)! | %12
!>(! [CG]>[DF]!>)! [CE]3 D | [DF]>[DF] [DF]3 [FA] |!f! [DA]>[DF] [DG]3 [DG] | [DF]>D [DF]3 [CG] | %16
!p! [CE]>[CF] [A,D]3 |] %17
V:2
 D | x5 D | x2 D3 x | x6 | x5 D | x6 | x6 | x3/2 D/ x4 | x2 D3 x | x6 | x5 D | x6 | x5 D | x6 | %14
 x6 | x3/2 D/ x4 | x5 |] %17
V:3
 [D,F,] | [D,A,]>[D,A,] [D,A,]3 [D,F,] | [A,,G,]>[A,,A,] [D,F,]3 [D,D] | %3
 [D,D]>[D,D] [D,D]3 [A,,A,] | [A,,A,]>[A,,A,] [D,A,]3 [D,F,] | [D,A,]>[D,A,] [D,A,]3 [D,=C] | %6
 [F,=C]>[F,C] [G,B,]3 [G,B,] | A,>A, A,3 [A,,A,] | [A,,A,]>[A,,A,] [D,F,]3 [D,D] | %9
 [D,D]>[D,D] [D,D]3 [D,A,] | [D,B,]>[D,C] [D,D]3 [D,F,] | [D,A,]>[D,A,] [D,A,]3 [F,A,] | %12
 [E,A,]>[D,A,] [A,,A,]3 [D,F,] | [D,A,]>[D,A,] [D,A,]3 [D,=C] | [F,=C]>[F,C] [G,B,]3 [G,B,] | %15
 A,>A, A,3 [A,,A,] | [A,,G,]>[A,,A,] [D,F,]3 |] %17
V:4
 x | x6 | x6 | x6 | x6 | x6 | x6 | A,>A, A,3 x | x6 | x6 | x6 | x6 | x6 | x6 | x6 | A,>A, A,3 x | %16
 x5 |] %17

